<?xml version="1.0" encoding="UTF-8"?>
<map version="1.10" tiledversion="1.12.2" orientation="orthogonal" renderorder="right-down" width="30" height="20" tilewidth="16" tileheight="16" infinite="0" nextlayerid="2" nextobjectid="1">
 <tileset firstgid="1" source="sprite.tsx"/>
 <tileset firstgid="91" source="sprit_2e.tsx"/>
 <layer id="1" name="Tile Layer 1" width="30" height="20">
  <data encoding="csv">
0,0,0,0,0,0,0,0,0,0,0,0,0,0,0,0,0,0,0,0,0,0,0,0,0,0,0,0,0,0,
0,0,0,0,11,0,0,0,11,0,0,0,3,0,0,0,0,0,11,0,0,0,11,0,0,0,0,0,0,2,
5,6,6,6,6,6,6,6,6,7,0,0,0,0,0,5,6,6,6,6,6,6,19,19,7,0,0,5,19,19,
0,0,0,0,0,0,0,0,0,0,0,0,11,0,0,0,0,16,0,0,0,0,0,0,0,0,0,16,16,16,
0,0,0,0,0,0,0,0,0,0,0,5,6,7,0,0,0,16,0,0,0,0,2,0,0,0,5,16,16,16,
0,0,0,0,0,0,0,11,0,0,0,16,16,16,0,0,0,16,0,0,5,6,6,6,6,6,16,16,16,16,
0,0,0,5,6,6,6,6,6,6,6,16,16,16,7,0,0,16,11,0,0,0,0,0,0,0,0,0,0,0,
0,0,0,0,0,16,16,16,16,16,16,16,16,16,16,0,2,16,6,7,0,0,11,0,0,2,0,0,0,0,
0,5,7,0,0,16,16,16,16,16,16,16,16,16,16,6,6,26,16,16,6,6,6,6,6,7,0,0,0,0,
2,16,16,0,0,16,16,0,0,0,0,0,0,0,0,0,0,0,0,0,0,0,0,0,0,0,0,0,0,0,
19,16,16,7,0,25,27,0,0,1,0,0,0,0,0,0,0,0,0,0,0,0,0,0,0,0,5,7,0,0,
0,0,0,0,0,0,0,0,5,6,6,7,0,0,93,0,0,0,0,0,0,0,0,0,0,5,6,16,7,0,
0,0,0,5,7,0,0,0,0,0,0,0,0,5,6,7,0,0,0,0,0,0,2,0,0,16,26,26,26,0,
0,0,5,26,6,7,11,0,0,0,0,0,0,16,16,16,0,0,0,5,6,6,6,6,6,16,26,26,27,0,
0,0,26,26,26,26,6,7,0,0,0,5,6,16,16,16,6,7,0,0,0,0,0,0,0,0,0,0,0,0,
0,0,15,26,0,0,0,0,0,2,0,16,16,16,16,16,16,16,0,1,0,0,0,0,0,0,0,0,0,2,
0,0,25,27,0,0,0,0,0,5,6,16,16,16,16,16,16,16,6,7,0,0,0,11,0,0,5,6,6,6,
0,0,0,0,0,5,6,6,6,26,26,26,16,16,16,16,16,16,16,16,6,6,6,6,7,0,0,0,0,0,
0,0,0,1,0,26,16,16,16,16,16,16,16,16,16,16,16,16,16,16,16,16,16,16,26,0,0,0,1,0,
6,6,6,6,6,16,16,16,16,16,16,16,16,16,16,16,16,16,16,16,16,16,16,16,16,6,6,6,6,6
</data>
 </layer>
</map>
